X: 2
T: Hommage \`a Arthur, Marcel et Phylias Pigeon v.2   [Bm]
T: Hommage aux Pigeons
C: Philippe Bruneau
R: reel
B: Portland Collection v.3 p.93
Z: 2016 John Chambers <jc:trillian.mit.edu>
M: C|
L: 1/8
K: Bm
|:\
"Bm"B3B f3f | "F#"efed c4 |\
c2cc "Bm"d2dd | BcdB "F#m"cfed |\
"Bm"B3B f3f |
"F#"efed c4 |\
c2cc "Bm"d2d2 |1 "F#"zdcF "Bm"B2F2 :|2 "F#"zdcF "Bm"BFBc \
|:\
"Bm"d2cd edcd |
BFDE FABc |\
d2cd edcd | BFDE Ffff |\
"Em"(3efe cf (3efe cf |
"Bm"(3ded Bf (3ded Bd |\
[1 "F#"(3cdc FF (3cdc FF | "Bm"Bcde "F#"fdBc :|\
[2 "F#"(3cdc F2 fedc | "Bm"BBdf b4 |]
